!!!OTL: Graserin und Reiter O Schoenste aller Schoensten,
!!!ARE: Europa, Mitteleuropa, Schweiz, Kanton Bern
!!!YOR: 7, S. 150
!!    1901 gedruckt
!!!SCT: Q0149N
!!!YEM: Copyright 1995, estate of Helmut Schaffrath.
**kern
*ICvox
*Ivox
*M4/4
*k[f#]
*G:
{4d
=1
4g
4g
4g
4b
=2
2dd
4gg}
{4ee
=3
4dd
8cc
8b
4.cc
8b
=4
4b
4a
4r}
{4dd
=5
4dd
4cc
4ee
4cc
=6
2b
4dd}
{4b
=7
4a
4a
4a
8a
8cc
=8
4b
4gg
4dd}
{4dd
=9
4dd
4cc
4ee
4cc
=10
2b
4dd}
{4b
=11
4a
4dd
4dd
8dd
8cc
=12
2b
4r}
==
!!!AGN: Ballade, Verfuehrung, Verlassen des Elternhauses
!! Verzierung (Vorschlag) .
!!!ONB: ESAC (Essen Associative Code) Database: BALLADE
!!!AMT: simple quadruple
!!!AIN: vox
!!!EED: Helmut Schaffrath
!!!EEV: 1.0
*-
